site/public/social-github.svg

<svg width="26" height="26" viewBox="0 0 26 26" fill="none" xmlns="http://www.w3.org/2000/svg">
<path d="M13 0C5.8175 0 0 5.96854 0 13.3301C0 19.2208 3.7245 24.2163 8.88875 25.977C9.53875 26.1025 9.77708 25.6904 9.77708 25.336C9.77708 25.0194 9.76625 24.1807 9.76083 23.0699C6.14467 23.8742 5.382 21.2815 5.382 21.2815C4.7905 19.7429 3.93575 19.3319 3.93575 19.3319C2.75817 18.5055 4.02675 18.5221 4.02675 18.5221C5.33217 18.6154 6.01792 19.8951 6.01792 19.8951C7.17708 21.9335 9.061 21.3448 9.80417 21.0037C9.92117 20.1417 10.2559 19.5541 10.6275 19.2208C7.74042 18.8876 4.706 17.7412 4.706 12.6336C4.706 11.1784 5.20975 9.98977 6.04392 9.05667C5.89767 8.72009 5.45892 7.36486 6.15767 5.52865C6.15767 5.52865 7.24642 5.17096 9.73267 6.89498C10.7727 6.59838 11.8777 6.45175 12.9827 6.44509C14.0877 6.45175 15.1927 6.59838 16.2327 6.89498C18.7027 5.17096 19.7914 5.52865 19.7914 5.52865C20.4902 7.36486 20.0514 8.72009 19.9214 9.05667C20.7502 9.98977 21.2539 11.1784 21.2539 12.6336C21.2539 17.7545 18.2152 18.882 15.3227 19.2097C15.7777 19.6096 16.2002 20.4272 16.2002 21.6758C16.2002 23.4598 16.1839 24.8928 16.1839 25.326C16.1839 25.6759 16.4114 26.0925 17.0777 25.9592C22.2788 24.2107 26 19.212 26 13.3301C26 5.96854 20.1793 0 13 0Z" fill="black"/>
</svg>

<svg xmlns="http://www.w3.org/2000/svg" fill="none" width="26" height="26" viewBox="0 0 26 26"><path d="M13 0C5.817 0 0 5.969 0 13.33c0 5.89 3.724 10.886 8.889 12.647.65.125.888-.287.888-.641 0-.317-.01-1.155-.016-2.266-3.616.804-4.379-1.788-4.379-1.788-.591-1.54-1.446-1.95-1.446-1.95-1.178-.826.09-.81.09-.81 1.306.093 1.992 1.373 1.992 1.373 1.16 2.038 3.043 1.45 3.786 1.11.117-.863.452-1.45.823-1.784-2.887-.333-5.921-1.48-5.921-6.587 0-1.456.504-2.644 1.338-3.577-.146-.337-.585-1.692.114-3.528 0 0 1.088-.358 3.575 1.366a12.173 12.173 0 0 1 3.25-.45 12.17 12.17 0 0 1 3.25.45c2.47-1.724 3.558-1.366 3.558-1.366.7 1.836.26 3.191.13 3.528.83.933 1.333 2.121 1.333 3.577 0 5.12-3.04 6.248-5.931 6.576.455.4.877 1.217.877 2.466 0 1.784-.016 3.217-.016 3.65 0 .35.227.767.894.633C22.278 24.211 26 19.212 26 13.33 26 5.97 20.18 0 13 0Z" fill="#000"/></svg>
